img/react.svg

<?xml version="1.0" encoding="UTF-8"?>
<svg width="256px" height="256px" viewBox="0 0 256 256" version="1.1" xmlns="http://www.w3.org/2000/svg" xmlns:xlink="http://www.w3.org/1999/xlink">
    <!-- Generator: Sketch 39 (31667) - http://www.bohemiancoding.com/sketch -->
    <title>React</title>
    <desc>Created with Sketch.</desc>
    <defs></defs>
    <g id="Page-1" stroke="none" stroke-width="1" fill="none" fill-rule="evenodd">
        <g id="React" fill="#53C1DE">
            <path d="M211.21697,88.0803609 C208.482672,87.1424434 205.725175,86.2735702 202.947104,85.4745686 C203.407808,83.602543 203.833843,81.7221551 204.224989,79.8343699 C210.484802,49.4471032 206.391934,24.9672085 192.414792,16.9088073 C179.014062,9.18010933 157.096757,17.2385105 134.961166,36.5011362 C132.77999,38.4035727 130.647228,40.3608153 128.564924,42.3709902 C127.170461,41.034343 125.751357,39.7236426 124.308342,38.4395637 C101.109742,17.8410715 77.8565703,9.16191881 63.8942079,17.244195 C50.5059839,24.9944942 46.5404501,48.0089151 52.1761011,76.806785 C52.7368091,79.6586142 53.369892,82.4957354 54.0747369,85.3154015 C50.7845262,86.2499396 47.6068694,87.2458707 44.5667785,88.3054686 C17.3696745,97.7872781 -2.84217094e-14,112.648934 -2.84217094e-14,128.063128 C-2.84217094e-14,143.984382 18.6452849,159.953386 46.9747488,169.635292 C49.27185,170.416723 51.5880711,171.140779 53.9212543,171.806785 C53.1632802,174.844534 52.4903472,177.902873 51.9032433,180.978219 C46.5302179,209.275849 50.7265439,231.744555 64.0795239,239.447104 C77.8713501,247.399772 101.018789,239.225407 123.55912,219.522798 C125.340654,217.965234 127.129009,216.313308 128.919639,214.581797 C131.175061,216.757906 133.490704,218.870722 135.863871,220.917783 C157.697044,239.705182 179.259634,247.291766 192.601245,239.568753 C206.380565,231.592209 210.857708,207.454523 205.043562,178.087063 C204.600168,175.843944 204.082875,173.553075 203.503052,171.220141 C205.12883,170.740366 206.723912,170.244674 208.280338,169.728518 C237.730793,159.971577 256.891097,144.196984 256.891097,128.063128 C256.891097,112.593226 238.962064,97.6315217 211.21697,88.0803609 Z M204.828687,159.312171 C203.424606,159.777166 201.983007,160.226244 200.514122,160.66168 C197.262566,150.369255 192.874103,139.424246 187.505625,128.117699 C192.629668,117.078326 196.847595,106.274293 200.008198,96.0478094 C202.635592,96.8095375 205.186812,97.6110574 207.644807,98.4580536 C231.417545,106.640378 245.917665,118.740485 245.917665,128.063128 C245.917665,137.994016 230.256762,150.886548 204.829823,159.312171 L204.828687,159.312171 Z M194.278184,180.218765 C196.848732,193.204523 197.215953,204.945368 195.512866,214.123624 C193.982588,222.370751 190.906116,227.868837 187.102023,230.071027 C179.006104,234.75736 161.692138,228.665809 143.021841,212.59903 C140.881044,210.75724 138.72433,208.79039 136.561932,206.709849 C143.800623,198.792424 151.034766,189.58802 158.094962,179.367221 C170.514541,178.265557 182.247427,176.463559 192.887746,174.004428 C193.410723,176.119076 193.876855,178.191658 194.278184,180.218765 L194.278184,180.218765 Z M87.5794043,229.261548 C79.669938,232.05493 73.3703329,232.134514 69.5628293,229.939145 C61.4589518,225.266455 58.0914315,207.223731 62.6856751,183.024653 C63.2320048,180.16483 63.8575444,177.32071 64.5615727,174.495572 C75.0836527,176.822822 86.7312712,178.497487 99.1804096,179.50706 C106.287219,189.508437 113.730553,198.701472 121.23187,206.751915 C119.63764,208.294088 118.005683,209.796777 116.337482,211.258616 C106.370213,219.971876 96.3824799,226.152106 87.5805412,229.261548 L87.5794043,229.261548 Z M50.5241744,159.250778 C37.9977263,154.969183 27.6530039,149.405158 20.5621111,143.334071 C14.1908808,137.876914 10.9734323,132.45955 10.9734323,128.063128 C10.9734323,118.709789 24.919878,106.777943 48.1798709,98.6683815 C51.099335,97.6549617 54.0478415,96.7272267 57.0216014,95.8863685 C60.2367761,106.342508 64.4535665,117.275011 69.542365,128.330301 C64.3876258,139.550442 60.1105794,150.656893 56.8658451,161.235818 C54.7360094,160.6262 52.6214805,159.964319 50.5241744,159.250778 L50.5241744,159.250778 Z M62.946027,74.6989582 C58.1175803,50.0246523 61.3236598,31.4123377 69.3922932,26.7419212 C77.9873147,21.7668135 96.9907255,28.861117 117.020764,46.6457629 C118.300922,47.7826705 119.586764,48.9730127 120.874881,50.2042837 C113.412219,58.2183455 106.037099,67.3420291 98.9916829,77.2854231 C86.9097657,78.4052771 75.3440045,80.2038649 64.7116445,82.6129721 C64.0566986,79.9898416 63.4679725,77.35062 62.946027,74.6978213 L62.946027,74.6989582 Z M173.757001,102.060914 C171.24566,97.7229633 168.641159,93.4396175 165.945309,89.2138578 C174.142413,90.2484437 181.995034,91.6241019 189.369017,93.3078621 C187.155458,100.403302 184.396183,107.822762 181.146901,115.428674 C178.77283,110.924007 176.309039,106.467198 173.757001,102.060914 L173.757001,102.060914 Z M128.568334,58.0466724 C133.629847,63.5299778 138.699318,69.6533622 143.685795,76.2963134 C133.57074,75.8183349 123.438809,75.8160586 113.32354,76.289492 C118.314565,69.7079338 123.427238,63.5936447 128.568334,58.0466724 L128.568334,58.0466724 Z M83.0897561,102.13595 C80.5696708,106.507191 78.151947,110.936652 75.8385593,115.420715 C72.642712,107.840952 69.9084492,100.388523 67.6755627,93.1918975 C75.005206,91.5513398 82.8214459,90.2109257 90.9651151,89.1933934 C88.2390532,93.445342 85.6132098,97.7607169 83.0897561,102.13595 L83.0897561,102.13595 Z M91.1993181,167.716192 C82.7862018,166.777106 74.8517235,165.504906 67.5243539,163.909825 C69.7924846,156.585866 72.5870035,148.973133 75.8510653,141.230792 C78.1742056,145.718178 80.6025536,150.150312 83.1340955,154.523516 C85.7172762,158.984545 88.4064478,163.383354 91.1993181,167.716192 L91.1993181,167.716192 Z M128.871889,198.854954 C123.670536,193.242041 118.482827,187.034526 113.41563,180.357467 C118.333892,180.550742 123.348792,180.648516 128.445548,180.648516 C133.682145,180.648516 138.858485,180.531414 143.952968,180.304033 C138.950575,187.10274 133.899294,193.319351 128.871889,198.854954 Z M181.251496,140.836285 C184.684957,148.662757 187.579524,156.234562 189.878351,163.434598 C182.429333,165.134274 174.387985,166.503111 165.914613,167.519507 C168.629948,163.214849 171.259377,158.856599 173.801341,154.447343 C176.385402,149.96616 178.869402,145.428017 181.251496,140.836285 L181.251496,140.836285 Z M164.294519,148.965174 C160.403112,155.725177 156.292914,162.356853 151.970441,168.849689 C144.348612,169.394267 136.472116,169.675083 128.445548,169.675083 C120.451951,169.675083 112.675503,169.426101 105.186692,168.940641 C100.752112,162.462923 96.5641607,155.81977 92.6318217,149.02543 C88.717863,142.267139 85.0619656,135.362651 81.6720323,128.32689 C85.0533433,121.289022 88.6981931,114.380835 92.5988514,107.616981 L92.5988514,107.619255 C96.4982858,100.853961 100.653267,94.2392122 105.054811,87.7893125 C112.69483,87.2117634 120.528124,86.909346 128.446685,86.909346 C136.400491,86.909346 144.244017,87.2140373 151.881762,87.796134 C156.238785,94.2361085 160.367192,100.827832 164.259275,107.558999 C168.173347,114.307805 171.866839,121.182152 175.333892,128.171134 C171.902503,135.231323 168.220758,142.167066 164.295656,148.965174 L164.294519,148.965174 Z M186.933761,26.4156288 C195.535604,31.3770936 198.881523,51.3832569 193.476664,77.6196739 C193.122404,79.3288179 192.737309,81.0314252 192.321566,82.7266629 C181.664194,80.2675317 170.090474,78.4371105 157.973313,77.3002029 C150.914254,67.2488026 143.600527,58.1092023 136.258378,50.1985991 C138.182325,48.3437889 140.152056,46.5370642 142.16575,44.7800975 C161.131642,28.2744727 178.857169,21.7577183 186.933761,26.4156288 L186.933761,26.4156288 Z M128.445548,105.123743 C141.115247,105.123743 151.384933,115.394566 151.384933,128.063128 C151.384933,140.732826 141.115247,151.00365 128.445548,151.00365 C115.776987,151.00365 105.506164,140.732826 105.506164,128.063128 C105.506164,115.394566 115.776987,105.123743 128.445548,105.123743 Z" id="Combined-Shape"></path>
        </g>
    </g>
</svg>

<svg width="256" height="256" viewBox="0 0 256 256" xmlns="http://www.w3.org/2000/svg"><title>React</title><path d="M211.217 88.08c-2.734-.938-5.492-1.806-8.27-2.605.46-1.872.887-3.753 1.278-5.64 6.26-30.388 2.167-54.868-11.81-62.926-13.4-7.73-35.318.33-57.454 19.59-2.18 1.904-4.313 3.86-6.395 5.87-1.395-1.336-2.814-2.646-4.257-3.93-23.198-20.6-46.45-29.278-60.414-21.196-13.388 7.75-17.354 30.765-11.718 59.563.56 2.852 1.194 5.69 1.9 8.508-3.29.935-6.47 1.93-9.51 2.99C17.37 97.787 0 112.65 0 128.063c0 15.92 18.645 31.89 46.975 41.572 2.297.782 4.613 1.506 6.946 2.172-.757 3.038-1.43 6.096-2.017 9.17-5.373 28.3-1.176 50.768 12.177 58.47 13.79 7.953 36.94-.222 59.48-19.924 1.78-1.558 3.57-3.21 5.36-4.94 2.255 2.175 4.57 4.288 6.944 6.335 21.833 18.787 43.396 26.374 56.737 18.65 13.78-7.976 18.258-32.113 12.444-61.48-.444-2.244-.96-4.535-1.54-6.868 1.625-.48 3.22-.975 4.776-1.49 29.45-9.758 48.61-25.533 48.61-41.667 0-15.47-17.928-30.43-45.673-39.983zm-6.388 71.232c-1.405.465-2.847.914-4.316 1.35-3.25-10.293-7.64-21.238-13.008-32.544 5.124-11.04 9.342-21.844 12.502-32.07 2.628.762 5.18 1.563 7.637 2.41 23.773 8.182 38.273 20.282 38.273 29.605 0 9.93-15.66 22.824-41.088 31.25zm-10.552 20.907c2.57 12.985 2.938 24.725 1.235 33.904-1.53 8.247-4.607 13.745-8.41 15.947-8.097 4.687-25.41-1.404-44.08-17.47-2.142-1.843-4.3-3.81-6.46-5.89 7.238-7.918 14.472-17.122 21.532-27.343 12.42-1.1 24.152-2.903 34.793-5.363.523 2.115.99 4.188 1.39 6.215zm-106.7 49.042c-7.908 2.793-14.208 2.873-18.015.677-8.104-4.674-11.472-22.716-6.877-46.915.546-2.86 1.172-5.704 1.876-8.53 10.522 2.328 22.17 4.002 34.618 5.012 7.107 10 14.55 19.194 22.052 27.245-1.594 1.542-3.226 3.045-4.895 4.507-9.967 8.712-19.955 14.892-28.756 18.002zm-37.054-70.01c-12.526-4.283-22.87-9.847-29.962-15.918-6.37-5.457-9.59-10.874-9.59-15.27 0-9.354 13.948-21.286 37.208-29.396 2.92-1.013 5.868-1.94 8.842-2.782 3.215 10.457 7.432 21.39 12.52 32.444-5.154 11.22-9.43 22.327-12.676 32.906-2.13-.61-4.245-1.272-6.342-1.985zm12.422-84.553c-4.828-24.675-1.622-43.288 6.446-47.958 8.595-4.975 27.6 2.12 47.63 19.904 1.28 1.137 2.565 2.327 3.853 3.558-7.463 8.014-14.838 17.138-21.883 27.08-12.082 1.12-23.648 2.92-34.28 5.33-.655-2.624-1.244-5.263-1.766-7.916zm110.81 27.36c-2.51-4.337-5.115-8.62-7.81-12.846 8.196 1.034 16.05 2.41 23.423 4.094-2.215 7.095-4.974 14.515-8.223 22.12-2.374-4.504-4.838-8.96-7.39-13.367zM128.57 58.048c5.062 5.483 10.13 11.606 15.118 18.25-10.115-.48-20.247-.48-30.362-.008 4.99-6.582 10.103-12.696 15.244-18.243zm-45.478 44.09c-2.52 4.37-4.938 8.8-7.25 13.284-3.197-7.58-5.932-15.03-8.164-22.228 7.33-1.64 15.145-2.98 23.29-4-2.727 4.253-5.353 8.57-7.876 12.944zm8.11 65.58c-8.414-.94-16.348-2.212-23.676-3.807 2.268-7.324 5.063-14.937 8.327-22.68 2.324 4.488 4.753 8.92 7.284 13.294 2.583 4.46 5.272 8.86 8.065 13.192zm37.672 31.138c-5.2-5.613-10.39-11.82-15.456-18.498 4.918.194 9.933.292 15.03.292 5.236 0 10.412-.12 15.507-.346-5.002 6.8-10.054 13.015-15.08 18.55zm52.38-58.02c3.433 7.828 6.328 15.4 8.626 22.6-7.45 1.7-15.49 3.068-23.963 4.085 2.715-4.305 5.344-8.663 7.886-13.073 2.585-4.48 5.07-9.02 7.45-13.61zm-16.957 8.13c-3.892 6.76-8.002 13.392-12.325 19.885-7.62.544-15.498.825-23.524.825-7.994 0-15.77-.25-23.26-.734-4.434-6.477-8.622-13.12-12.554-19.915-3.914-6.758-7.57-13.662-10.96-20.698 3.38-7.038 7.026-13.946 10.927-20.71v.002c3.898-6.766 8.053-13.38 12.455-19.83 7.64-.578 15.473-.88 23.392-.88 7.953 0 15.797.304 23.435.886 4.357 6.44 8.485 13.032 12.377 19.763 3.913 6.748 7.607 13.622 11.074 20.61-3.43 7.06-7.113 13.997-11.038 20.795zm22.64-122.55c8.6 4.962 11.947 24.968 6.542 51.205-.355 1.71-.74 3.41-1.155 5.107-10.658-2.46-22.232-4.29-34.35-5.427-7.058-10.05-14.37-19.19-21.714-27.1 1.924-1.856 3.894-3.663 5.908-5.42 18.966-16.506 36.69-23.022 44.768-18.364zm-58.49 78.71c12.67 0 22.94 10.27 22.94 22.938 0 12.67-10.27 22.94-22.94 22.94-12.668 0-22.94-10.27-22.94-22.94 0-12.668 10.272-22.94 22.94-22.94z" fill="#53C1DE" fill-rule="evenodd"/></svg>
